flaticon/business/check.svg

<svg xmlns="http://www.w3.org/2000/svg" width="32" height="32" viewBox="0 0 24 24">
    <path d="M 24 6 L 22.398438 6 L 22.398438 1.195312 C 22.398438 0.535156 21.863281 0 21.207031 0 L 19.59375 0 C 18.9375 0 18.398438 0.535156 18.398438 1.195312 L 18.398438 6 L 0 6 L 0 19.199219 L 18.398438 19.199219 L 18.398438 20.105469 L 20 22.90625 L 20 23.601562 C 20 23.820312 20.179688 24 20.398438 24 C 20.621094 24 20.800781 23.820312 20.800781 23.601562 L 20.800781 22.90625 L 22.398438 20.105469 L 22.398438 19.199219 L 24 19.199219 Z M 21.601562 4.398438 L 19.199219 4.398438 L 19.199219 3.601562 L 21.601562 3.601562 Z M 19.199219 1.195312 C 19.199219 0.976562 19.375 0.800781 19.59375 0.800781 L 21.207031 0.800781 C 21.421875 0.800781 21.601562 0.976562 21.601562 1.195312 L 21.601562 2.800781 L 19.199219 2.800781 Z M 0.800781 18.398438 L 0.800781 6.800781 L 18.398438 6.800781 L 18.398438 18.398438 Z M 20.398438 21.992188 L 19.488281 20.398438 L 21.3125 20.398438 Z M 21.601562 19.601562 L 19.199219 19.601562 L 19.199219 5.199219 L 21.601562 5.199219 Z M 23.199219 18.398438 L 22.398438 18.398438 L 22.398438 6.800781 L 23.199219 6.800781 Z M 23.199219 18.398438"/>
    <path d="M15.601562 10.398438L14.398438 10.398438C14.179688 10.398438 14 10.578125 14 10.800781 14 11.019531 14.179688 11.199219 14.398438 11.199219L15.601562 11.199219C15.820312 11.199219 16 11.019531 16 10.800781 16 10.578125 15.820312 10.398438 15.601562 10.398438zM8.398438 9.601562L9.601562 9.601562C9.820312 9.601562 10 9.421875 10 9.199219 10 8.980469 9.820312 8.800781 9.601562 8.800781L8.398438 8.800781C8.179688 8.800781 8 8.980469 8 9.199219 8 9.421875 8.179688 9.601562 8.398438 9.601562zM15.601562 8.800781L12.800781 8.800781C12.578125 8.800781 12.398438 8.980469 12.398438 9.199219 12.398438 9.421875 12.578125 9.601562 12.800781 9.601562L15.601562 9.601562C15.820312 9.601562 16 9.421875 16 9.199219 16 8.980469 15.820312 8.800781 15.601562 8.800781zM11.199219 9.601562C11.304688 9.601562 11.40625 9.554688 11.484375 9.484375 11.554688 9.40625 11.601562 9.304688 11.601562 9.199219 11.601562 9.097656 11.554688 8.992188 11.484375 8.914062 11.332031 8.769531 11.0625 8.769531 10.914062 8.914062 10.84375 8.992188 10.800781 9.097656 10.800781 9.199219 10.800781 9.304688 10.84375 9.40625 10.914062 9.484375 10.992188 9.554688 11.09375 9.601562 11.199219 9.601562zM9.601562 10.800781C9.601562 11.019531 9.777344 11.199219 10 11.199219L12.800781 11.199219C13.019531 11.199219 13.199219 11.019531 13.199219 10.800781 13.199219 10.578125 13.019531 10.398438 12.800781 10.398438L10 10.398438C9.777344 10.398438 9.601562 10.578125 9.601562 10.800781zM8.398438 11.199219C8.503906 11.199219 8.609375 11.15625 8.683594 11.085938 8.757812 11.007812 8.800781 10.902344 8.800781 10.800781 8.800781 10.691406 8.757812 10.589844 8.683594 10.515625 8.53125 10.367188 8.265625 10.367188 8.117188 10.515625 8.042969 10.589844 8 10.691406 8 10.800781 8 10.902344 8.042969 11.007812 8.117188 11.085938 8.191406 11.15625 8.292969 11.199219 8.398438 11.199219zM4.398438 9.242188L4.398438 8.800781C4.398438 8.578125 4.222656 8.398438 4 8.398438 3.777344 8.398438 3.601562 8.578125 3.601562 8.800781L3.601562 9.242188C3.164062 9.332031 2.765625 9.5625 2.472656 9.910156 2.226562 10.199219 2.113281 10.566406 2.15625 10.949219 2.195312 11.34375 2.398438 11.707031 2.707031 11.945312L3.601562 12.640625 3.601562 14.816406C3.136719 14.648438 2.800781 14.210938 2.800781 13.6875 2.800781 13.46875 2.621094 13.289062 2.398438 13.289062 2.179688 13.289062 2 13.46875 2 13.6875 2 14.65625 2.6875 15.460938 3.601562 15.648438L3.601562 16C3.601562 16.222656 3.777344 16.398438 4 16.398438 4.222656 16.398438 4.398438 16.222656 4.398438 16L4.398438 15.648438C4.835938 15.558594 5.234375 15.328125 5.527344 14.980469 5.773438 14.691406 5.886719 14.320312 5.84375 13.9375 5.804688 13.546875 5.601562 13.183594 5.292969 12.941406L4.398438 12.25 4.398438 10.074219C4.863281 10.238281 5.199219 10.679688 5.199219 11.199219 5.199219 11.421875 5.378906 11.601562 5.601562 11.601562 5.820312 11.601562 6 11.421875 6 11.199219 6 10.234375 5.3125 9.425781 4.398438 9.242188zM4.800781 13.574219C4.941406 13.683594 5.03125 13.847656 5.050781 14.019531 5.066406 14.183594 5.019531 14.34375 4.917969 14.464844 4.777344 14.628906 4.597656 14.742188 4.398438 14.8125L4.398438 13.261719zM3.199219 11.316406C3.058594 11.207031 2.96875 11.042969 2.949219 10.867188 2.933594 10.703125 2.980469 10.546875 3.082031 10.425781 3.222656 10.261719 3.402344 10.144531 3.601562 10.074219L3.601562 11.625zM9.65625 13.359375C8.78125 13.816406 8.488281 14.6875 8.378906 15.59375 8.214844 15.453125 8.046875 15.316406 7.882812 15.175781 7.492188 14.847656 6.921875 15.410156 7.316406 15.742188 7.691406 16.054688 8.066406 16.371094 8.441406 16.683594 8.703125 16.902344 9.109375 16.765625 9.121094 16.398438 9.152344 15.535156 9.191406 14.503906 10.0625 14.050781 10.519531 13.8125 10.113281 13.121094 9.65625 13.359375zM12.316406 14.957031C11.765625 15.085938 11.132812 15.789062 10.742188 14.996094 10.515625 14.535156 9.824219 14.941406 10.054688 15.402344 10.257812 15.820312 10.652344 16.113281 11.121094 16.175781 11.359375 16.203125 11.574219 16.171875 11.796875 16.082031 11.960938 16.019531 12.570312 15.5625 12.703125 15.796875 12.953125 16.246094 13.644531 15.84375 13.394531 15.394531 13.179688 15.007812 12.742188 14.855469 12.316406 14.957031zM12.316406 14.957031"/>
</svg>

<svg xmlns="http://www.w3.org/2000/svg" width="32" height="32" viewBox="0 0 24 24">
    <path d="M24 6h-1.602V1.195c0-.66-.535-1.195-1.191-1.195h-1.613c-.657 0-1.196.535-1.196 1.195V6H0v13.2h18.398v.905L20 22.906v.696a.4.4 0 0 0 .8 0v-.696l1.598-2.8v-.907H24zm-2.398-1.602h-2.403v-.796h2.403zm-2.403-3.203c0-.218.176-.394.395-.394h1.613c.215 0 .395.176.395.394v1.606h-2.403zM.801 18.398V6.801h17.597v11.597zm19.597 3.594l-.91-1.594h1.825zm1.204-2.39h-2.403V5.199h2.403zm1.597-1.204h-.8V6.801h.8zm0 0"/>
    <path d="M15.602 10.398h-1.204a.401.401 0 0 0 0 .801h1.204a.4.4 0 0 0 0-.8zm0 0M8.398 9.602h1.204a.401.401 0 0 0 0-.801H8.398a.4.4 0 0 0 0 .8zm0 0M15.602 8.8H12.8a.401.401 0 1 0 0 .802h2.8a.401.401 0 0 0 0-.801zm0 0M11.2 9.602a.434.434 0 0 0 .284-.118.434.434 0 0 0 .118-.285.442.442 0 0 0-.118-.285.43.43 0 0 0-.57 0 .438.438 0 0 0-.113.285.43.43 0 0 0 .113.285c.078.07.18.118.285.118zm0 0M9.602 10.8c0 .22.175.4.398.4h2.8a.4.4 0 0 0 0-.802H10a.398.398 0 0 0-.398.403zm0 0M8.398 11.2c.106 0 .211-.044.286-.114A.423.423 0 0 0 8.8 10.8c0-.11-.043-.211-.117-.285a.416.416 0 0 0-.567 0A.402.402 0 0 0 8 10.8c0 .101.043.207.117.285.074.07.176.113.281.113zm0 0M4.398 9.242v-.441a.398.398 0 1 0-.796 0v.441c-.438.09-.836.32-1.13.668-.245.29-.359.656-.316 1.04.04.394.242.757.551.995l.895.696v2.175a1.201 1.201 0 0 1-.801-1.129.401.401 0 0 0-.801 0c0 .97.688 1.774 1.602 1.961V16c0 .223.175.398.398.398A.395.395 0 0 0 4.398 16v-.352c.438-.09.836-.32 1.13-.668.245-.289.359-.66.316-1.043a1.461 1.461 0 0 0-.551-.996l-.895-.691v-2.176c.465.164.801.606.801 1.125a.401.401 0 0 0 .8 0c.001-.965-.687-1.773-1.6-1.957zm.403 4.332c.14.11.23.274.25.446a.601.601 0 0 1-.133.445 1.2 1.2 0 0 1-.52.348v-1.551zm-1.602-2.258a.664.664 0 0 1-.25-.449.592.592 0 0 1 .133-.441c.14-.164.32-.281.52-.352v1.551zm0 0M9.656 13.36c-.875.456-1.168 1.328-1.277 2.234-.164-.14-.332-.278-.496-.418-.39-.328-.961.234-.567.566.375.313.75.63 1.125.942.262.218.668.082.68-.286.031-.863.07-1.894.941-2.347.458-.239.051-.93-.406-.692zm0 0M12.316 14.957c-.55.129-1.183.832-1.574.04-.226-.462-.918-.056-.687.405.203.418.597.711 1.066.774.238.027.453-.004.676-.094.164-.062.773-.52.906-.285.25.45.942.047.692-.402-.215-.387-.653-.54-1.079-.438zm0 0"/>
</svg>
